icon/cg/arrows-expand-up-left.svg

<svg viewBox="0 0 24 24" fill="none" xmlns="http://www.w3.org/2000/svg" height="1em" width="1em">
  <path d="M5 11H3L3 3L11 3V5L6.41419 5L11.7781 10.3639C12.1686 10.7545 12.1686 11.3876 11.7781 11.7782C11.3876 12.1687 10.7544 12.1687 10.3639 11.7782L5 6.41424L5 11Z" fill="currentColor"/>
  <path fill-rule="evenodd" clip-rule="evenodd" d="M19 13C20.1046 13 21 13.8954 21 15V19C21 20.1046 20.1046 21 19 21H15C13.8954 21 13 20.1046 13 19V15C13 13.8954 13.8954 13 15 13H19ZM19 15V19H15V15H19Z" fill="currentColor"/>
</svg>

<svg width="24" height="24" fill="none" xmlns="http://www.w3.org/2000/svg"><path d="M5 11H3V3h8v2H6.414l5.364 5.364a1 1 0 0 1-1.414 1.414L5 6.414V11Z" fill="currentColor"/><path fill-rule="evenodd" clip-rule="evenodd" d="M19 13a2 2 0 0 1 2 2v4a2 2 0 0 1-2 2h-4a2 2 0 0 1-2-2v-4a2 2 0 0 1 2-2h4Zm0 2v4h-4v-4h4Z" fill="currentColor"/></svg>
